!!!COM:	Josquin des Prez
!!!CDT:	~1450-1521/08/27
!!!OTL: Credo  De tous biens playne
!!!AGN:	Mass section; Credo
!!!SCT:	NJE 13.2
!!!SCA:	New Josquin Edition 13.2
!!!voices: 4
**kern	**kern	**kern	**kern	**kern
*staff5	*staff4	*staff3	*staff2	*staff1
*Ivox	*Ivox	*Ivox	*Ivox	*Ivox
*I"Bassus2	*I"Bassus1	*I"Tenor	*I"Altus	*I"Superius
*	*I"Bassus	*	*	*
*I'B2	*I'B	*I'T	*I'A	*I'S
*>[A,B,C,D]	*>[A,B,C,D]	*>[A,B,C,D]	*>[A,B,C,D]	*>[A,B,C,D]
*>Incarnatus[B]	*>Incarnatus[B]	*>Incarnatus[B]	*>Incarnatus[B]	*>Incarnatus[B]
*>Spiritum[C]	*>Spiritum[C]	*>Spiritum[C]	*>Spiritum[C]	*>Spiritum[C]
*>Patre[D]	*>Patre[D]	*>Patre[D]	*>Patre[D]	*>Patre[D]
*>A	*>A	*>A	*>A	*>A
*clefF4	*clefF4	*clefGv2	*clefGv2	*clefG2
*k[b-]	*k[b-]	*k[b-]	*k[]	*k[b-]
*M2/1	*M2/1	*M2/1	*M2/1	*M2/1
*met(C|)	*met(C|)	*met(C|)	*met(C|)	*met(C|)
!!section: Factorem celi
!!!OMD: Factorem celi
=1-	=1-	=1-	=1-	=1-
!	!	!LO:TX:Z=6:t=Tenor by Hayne van Ghizeghem	!	!
0r	2E\	[0G	1r	0r
.	2F\	.	.	.
.	1G	.	2E/	.
.	.	.	2F/	.
=2	=2	=2	=2	=2
0r	1.C	0G]	1G	2e/
.	.	.	.	2f/
.	.	.	1C	1g
.	4BB-/	.	.	.
.	4AA/	.	.	.
=3	=3	=3	=3	=3
0r	1GG	0B-	1G	1g
.	2D\	.	2r	2f/
.	2E\	.	2G/	2g/
=4	=4	=4	=4	=4
0r	2F\	0A	2D/	2a/
.	2G\	.	2.d\	1g
.	1D	.	.	.
.	.	.	4c\	.
.	.	.	2A/	2f#i/
=5	=5	=5	=5	=5
0r	0GG	1G	1B	0g
.	.	1B-	2G/	.
.	.	.	2G/	.
=6	=6	=6	=6	=6
0r	1G	1B-	2G/	0r
.	.	.	2G/	.
.	1F	1c	1A	.
=7	=7	=7	=7	=7
0r	2.B-\	0d	[0G	1r
.	4A\	.	.	.
.	2B-\	.	.	2g/
.	2G\	.	.	2g/
=8	=8	=8	=8	=8
0r	2C/	1e-i	1G]	2g/
.	4D\	.	.	2g/
.	4E\	.	.	.
.	2F\	1d	1F	1a
.	2D\	.	.	.
=9	=9	=9	=9	=9
0r	1GG	0B-	[0G	1.g
.	1G	.	.	.
.	.	.	.	2f/
=10	=10	=10	=10	=10
0r	1C	1c	0G]	1e
.	1G	1B-	.	1d
=11	=11	=11	=11	=11
0r	1F	0d	0D	1a
.	1BB-	.	.	1b-
=12	=12	=12	=12	=12
0r	1F	1c	0r	1.a
.	1D	1d	.	.
.	.	.	.	2f/
=13	=13	=13	=13	=13
0r	2.E\	0G	0r	2g/
.	.	.	.	2a/
.	4F\	.	.	.
.	2G\	.	.	2b-\
.	2C/	.	.	[2cc\
=14	=14	=14	=14	=14
0r	2.F\	0A	0r	4cc\]
.	.	.	.	4b-\
.	.	.	.	4a/
.	4E\	.	.	4g/
.	1D	.	.	2.f#i/
.	.	.	.	4e/
=15	=15	=15	=15	=15
0r	2r	[0G	1r	[0g
.	1GG	.	.	.
.	.	.	2B\	.
.	2C/	.	2c\	.
=16	=16	=16	=16	=16
0r	2BB-/	0G]	1d	0g]
.	1GG	.	.	.
.	.	.	1e	.
.	2C/	.	.	.
=17	=17	=17	=17	=17
0r	2BB-/	1r	2d\	0r
.	2C/	.	2c\	.
.	2GG/	1G	1B	.
.	2G\	.	.	.
=18	=18	=18	=18	=18
0r	4A\	1F	2c\	0r
.	4G\	.	.	.
.	4F\	.	2c\	.
.	4E\	.	.	.
.	1D	1F	[1d	.
=19	=19	=19	=19	=19
0r	1.G	1B-	1d]	0r
.	.	1B-	1e	.
.	4F\	.	.	.
.	4G\	.	.	.
=20	=20	=20	=20	=20
0r	1A	1A	1e	0r
.	1D	[1d	1f	.
=21	=21	=21	=21	=21
0r	0A	2d\]	2e\	0r
.	.	2c#i\	2e\	.
.	.	2c#i\	2e\	.
.	.	2Bni\	2e\	.
=22	=22	=22	=22	=22
0r	0D	1.d	2d\	0r
.	.	.	2.f\	.
.	.	.	4e\	.
.	.	4c\	[2d\	.
.	.	4B-\	.	.
=23	=23	=23	=23	=23
0r	0r	1A	2d\]	2e/
.	.	.	2c\	2f/
.	.	1B-	1d	1g
=24	=24	=24	=24	=24
0r	0r	0c	1r	2e/
.	.	.	.	2f/
.	.	.	1e	1g
=25	=25	=25	=25	=25
0r	0r	0A	1f	1a
.	.	.	1e	1a
=26	=26	=26	=26	=26
0r	0r	1G	2r	1b-
.	.	.	2e\	.
.	.	1F	2c\	[1a
.	.	.	2d\	.
=27	=27	=27	=27	=27
0r	1AA	0E	2e\	1a]
.	.	.	1d	.
.	2AA/	.	.	1a
.	2AA/	.	2c#i\	.
=28	=28	=28	=28	=28
0r	2BB-/	[0D	1.d	2f/
.	2GG/	.	.	2g/
.	2FF/	.	.	2a/
.	2GG/	.	2B\	[2g/
=29	=29	=29	=29	=29
0r	1D	0D]	1A	2g/]
.	.	.	.	2f#i/
.	1GG	.	1G	2g/
.	.	.	.	2g/
=30	=30	=30	=30	=30
0r	1D	1r	0r	2f/
.	.	.	.	2.a/
.	2GG/	1d	.	.
.	.	.	.	4g/
.	2BB-/	.	.	[2g/
=31	=31	=31	=31	=31
0r	1AA	1c	1r	2g/]
.	.	.	.	2f#i/
.	[1GG	1B-	1d	1g
=32	=32	=32	=32	=32
0r	1GG]	0G	1d	0r
.	[1C	.	[1e	.
=33	=33	=33	=33	=33
0r	2C/]	0A	1e]	0r
.	4BB-/	.	.	.
.	4AA/	.	.	.
.	1D	.	2d\	.
.	.	.	2c\	.
=34	=34	=34	=34	=34
0r	1.GG	1G	2B\	0r
.	.	.	2c\	.
.	.	[1B-	1d	.
.	[2G\	.	.	.
=35	=35	=35	=35	=35
0r	1G]	1B-]	1d	2r
.	.	.	.	2g/
.	[1C	1c	1e	2g/
.	.	.	.	[2a/
=36	=36	=36	=36	=36
0r	2C/]	0A	0r	4a/]
.	.	.	.	4g/
.	1.D	.	.	4f#i/
.	.	.	.	4e/
.	.	.	.	1f#i
=37	=37	=37	=37	=37
0r	1GG	0G	1r	0g
.	[1BB-	.	2d\	.
.	.	.	2d\	.
=38	=38	=38	=38	=38
0r	2BB-/]	1B-	1d	0r
.	2BB-/	.	.	.
.	2C/	1A	1e	.
.	2C/	.	.	.
=39	=39	=39	=39	=39
0r	1D	1F	1d	0r
.	1GG	[1G	1B	.
=40	=40	=40	=40	=40
0r	1C	2G/]	1c	0r
.	.	2F#i/	.	.
.	1D	2F#i/	1A	.
.	.	2E/	.	.
=41	=41	=41	=41	=41
0r	2GG/	[0G	2B\	0r
.	2C/	.	2c\	.
.	2BB-/	.	1d	.
.	[2GG/	.	.	.
=42	=42	=42	=42	=42
0r	2GG/]	0G]	2B\	0r
.	1C	.	2c\	.
.	.	.	1d	.
.	2BBni/	.	.	.
=43	=43	=43	=43	=43
0r	0C	1r	1e	0r
.	.	1G	1r	.
=44	=44	=44	=44	=44
0r	1C	1A	1e	1r
.	1D	1F	1f	1a
=45	=45	=45	=45	=45
0r	1GG	1G	2e\	1b-
.	.	.	2d\	.
.	1D	1D	2f\	1a
.	.	.	2e\	.
=46	=46	=46	=46	=46
0r	0AA	0E	2c\	2r
.	.	.	1d	2a/
.	.	.	.	2a/
.	.	.	2c#i\	2a/
=47	=47	=47	=47	=47
0r	1BB-	[0D	1.d	2f/
.	.	.	.	2.b-\
.	1GG	.	.	.
.	.	.	.	4a/
.	.	.	2B\	[2g/
=48	=48	=48	=48	=48
0r	1D	0D]	1A	2g/]
.	.	.	.	2f#i/
.	1GG	.	2G/	1g
.	.	.	2B\	.
=49	=49	=49	=49	=49
0r	2C/	1r	2c\	2e/
.	2BB-/	.	1d	2f/
.	1GG	1D	.	1g
.	.	.	4c\	.
.	.	.	4B\	.
=50	=50	=50	=50	=50
0r	2FF/	0F	2A/	2a/
.	2.F\	.	2D/	1a
.	.	.	2.A/	.
.	4E\	.	.	.
.	2D\	.	.	2f/
.	.	.	4B\	.
=51	=51	=51	=51	=51
0r	2.C/	0G	1c	1e
.	4BB-/	.	.	.
.	2GG/	.	1d	2d/
.	2BB-/	.	.	2g/
=52	=52	=52	=52	=52
0r	2AA/	1A	0r	2e/
.	2A\	.	.	2f/
.	2G\	1B-	.	1g
.	2B-\	.	.	.
=53	=53	=53	=53	=53
0r	1A	1c	2r	2e/
.	.	.	2c\	2f/
.	2G\	[1d	2B-i\	[1g
.	[2B-\	.	[2G/	.
=54	=54	=54	=54	=54
0r	4B-\]	1d]	2G/]	2g/]
.	4A\	.	.	.
.	4G\	.	1B-i	2g/
.	4F\	.	.	.
.	2E-i\	1e-i	.	2g/
.	2C/	.	2c\	2g/
=55	=55	=55	=55	=55
0r	2D\	1d	1A	2f/
.	4E\	.	.	2.a/
.	4F\	.	.	.
.	2G\	[1B-	2r	.
.	.	.	.	4g/
.	2GG/	.	2G/	[2b-\
=56	=56	=56	=56	=56
0r	2G\	1B-]	2B-i\	4b-\]
.	.	.	.	4cc\
.	2B-\	.	2G/	2dd\
.	4A\	1c	1A	2cc\
.	4G\	.	.	.
.	4F\	.	.	[2a/
.	4E\	.	.	.
=57	=57	=57	=57	=57
0r	2D\	1d	1.F	4a/]
.	.	.	.	4g/
.	2BB-/	.	.	2.b-\
.	[1F	1c	.	.
.	.	.	.	4a/
.	.	.	4G/	[2cc\
.	.	.	4A/	.
=58	=58	=58	=58	=58
0r	2F\]	1d	2D/	4cc\]
.	.	.	.	4b-\
.	2D\	.	1d	2.b-\
.	1G	1B-	.	.
.	.	.	.	4a/
.	.	.	2B-i\	[2g/
=59	=59	=59	=59	=59
0r	1C	0A	2c\	4g/]
.	.	.	.	4f/
.	.	.	2e\	2.a/
.	1D	.	[1dl	.
.	.	.	.	4e/
.	.	.	.	2f#i/
=60	=60	=60	=60	=60
0r	0GGl	0Gl	0d]	0gl
!!LO:LB:i:g=z
=61||	=61||	=61||	=61||	=61||
*>B	*>B	*>B	*>B	*>B
*clefF4	*clefF4	*clefGv2	*clefGv2	*clefG2
*k[b-]	*k[b-]	*k[b-]	*k[]	*k[b-]
*M2/1	*M2/1	*M2/1	*M2/1	*M2/1
*met(C|)	*met(C|)	*met(C|)	*met(C|)	*met(C|)
!!!OMD: Et incarnatus est
!!section: Et incarnatus est
0r	0r	[0G	0r	0r
=62	=62	=62	=62	=62
0r	1E	0G]	0r	0r
.	2G\	.	.	.
.	2G\	.	.	.
=63	=63	=63	=63	=63
0r	2G\	0B-	0r	0r
.	2G\	.	.	.
.	1G	.	.	.
=64	=64	=64	=64	=64
0r	2r	0A	0r	0r
.	1F	.	.	.
.	2D\	.	.	.
=65	=65	=65	=65	=65
0r	2E\	1G	0r	0r
.	2F\	.	.	.
.	[1G	1B-	.	.
=66	=66	=66	=66	=66
0r	1G]	1B-	0r	0r
.	1A	1c	.	.
=67	=67	=67	=67	=67
0r	0r	0d	0r	2a/
.	.	.	.	2b-\
.	.	.	.	2a/
.	.	.	.	2f/
=68	=68	=68	=68	=68
0r	0r	1e-i	0r	2g/
.	.	.	.	2g/
.	.	1d	.	1f
=69	=69	=69	=69	=69
0r	2.G\	0B-	0r	0r
.	4F\	.	.	.
.	2G\	.	.	.
.	2B-\	.	.	.
=70	=70	=70	=70	=70
0r	1A	1c	0r	0r
.	1G	1B-	.	.
=71	=71	=71	=71	=71
0r	0r	0d	0r	1a
.	.	.	.	1b-
=72	=72	=72	=72	=72
0r	1r	1c	0r	1a
.	1D	1d	.	1f
=73	=73	=73	=73	=73
0r	2E\	0G	0r	2g/
.	2.G\	.	.	2.b-\
.	4F\	.	.	4a/
.	4E\	.	.	[2cc\
.	4D\	.	.	.
=74	=74	=74	=74	=74
0r	2F\	0A	0r	4cc\]
.	.	.	.	4b-\
.	2G\	.	.	4a/
.	.	.	.	4g/
.	1D	.	.	2.f#i/
.	.	.	.	4e/
=75	=75	=75	=75	=75
0r	1GG	[0G	1d	[0g
.	1r	.	1e	.
=76	=76	=76	=76	=76
0r	2G\	0G]	1d	0g]
.	1B-	.	.	.
.	.	.	1B	.
.	2G\	.	.	.
=77	=77	=77	=77	=77
0r	2A\	1r	2c\	0r
.	2F\	.	2A/	.
.	1E	1G	2B\	.
.	.	.	2c\	.
=78	=78	=78	=78	=78
0r	0D	1F	2.d\	0r
.	.	.	4c\	.
.	.	1F	1A	.
=79	=79	=79	=79	=79
0r	0r	1B-	2r	1r
.	.	.	2.G/	.
.	.	1B-	.	1g
.	.	.	4F/	.
.	.	.	4E/	.
.	.	.	4D/	.
=80	=80	=80	=80	=80
0r	0r	1A	1F	1a
.	.	[1d	1G	1g
=81	=81	=81	=81	=81
0r	0r	2d\]	0A	0e
.	.	2c#i\	.	.
.	.	2c#i\	.	.
.	.	2Bni\	.	.
=82	=82	=82	=82	=82
0r	2.D\	1.d	0r	2r
.	.	.	.	1f
.	4E\	.	.	.
.	2F\	.	.	.
.	2G\	4c\	.	2d/
.	.	4B-\	.	.
=83	=83	=83	=83	=83
0r	2C/	1A	0r	2e/
.	2D\	.	.	2f/
.	1GG	1B-	.	[1g
=84	=84	=84	=84	=84
0r	2r	0c	1r	1g]
.	2C/	.	.	.
.	2AA/	.	1e	1a
.	2C/	.	.	.
=85	=85	=85	=85	=85
0r	2.FF/	0A	1f	0r
.	4GG/	.	.	.
.	2.AA/	.	1e	.
.	4BB-/	.	.	.
=86	=86	=86	=86	=86
0r	2C/	1G	1e	0r
.	4D\	.	.	.
.	4E\	.	.	.
.	2F\	1F	2c\	.
.	2D\	.	2d\	.
=87	=87	=87	=87	=87
0r	0AA	0E	4e\	0r
.	.	.	4d\	.
.	.	.	4c#i\	.
.	.	.	4B\	.
.	.	.	1c#i	.
=88	=88	=88	=88	=88
0r	1D	[0D	[0d	1a
.	1GG	.	.	1b-
=89	=89	=89	=89	=89
0r	1r	0D]	0d]	1a
.	2r	.	.	1a
.	[2D\	.	.	.
=90	=90	=90	=90	=90
0r	2D\]	1r	0r	2f/
.	2GG/	.	.	2g/
.	2D\	1d	.	2a/
.	2BB-/	.	.	[2g/
=91	=91	=91	=91	=91
0r	1AA	1c	1r	2g/]
.	.	.	.	2f#i/
.	1GG	1B-	1d	1g
=92	=92	=92	=92	=92
0r	0r	0G	2d\	0r
.	.	.	2e\	.
.	.	.	2d\	.
.	.	.	2B\	.
=93	=93	=93	=93	=93
0r	0r	0A	2r	0r
.	.	.	1c	.
.	.	.	2A/	.
=94	=94	=94	=94	=94
0r	1.G	1G	2B\	0r
.	.	.	2c\	.
.	.	[1B-	[1d	.
.	4F\	.	.	.
.	4E\	.	.	.
=95	=95	=95	=95	=95
0r	2D\	1B-]	1d]	0r
.	2G\	.	.	.
.	2C/	1c	1e	.
.	4D\	.	.	.
.	4E\	.	.	.
=96	=96	=96	=96	=96
0r	4F\	0A	0r	1r
.	4E\	.	.	.
.	4D\	.	.	.
.	4C/	.	.	.
.	1D	.	.	1a
=97	=97	=97	=97	=97
0r	0r	0G	0r	1.b-
.	.	.	.	4a/
.	.	.	.	4g/
=98	=98	=98	=98	=98
0r	0r	1B-	0r	2f/
.	.	.	.	2g/
.	.	1A	.	[1a
=99	=99	=99	=99	=99
0r	0r	1F	0r	1a]
.	.	[1G	.	[1b-
=100	=100	=100	=100	=100
0r	0r	2G/]	0r	2b-\]
.	.	2F#i/	.	4a/
.	.	.	.	4g/
.	.	2F#i/	.	1a
.	.	2E/	.	.
=101	=101	=101	=101	=101
0r	[0GG	[0G	2B\	1g
.	.	.	2c\	.
.	.	.	1d	2r
.	.	.	.	[2g/
=102	=102	=102	=102	=102
0r	0GG]	0G]	2B\	2g/]
.	.	.	2c\	4f/
.	.	.	.	4e/
.	.	.	1d	1d
=103	=103	=103	=103	=103
0r	0C	1r	1e	0c
.	.	1G	1r	.
=104	=104	=104	=104	=104
0r	0r	1A	1e	1r
.	.	1F	1f	1a
=105	=105	=105	=105	=105
0r	0r	1G	2e\	1b-
.	.	.	2d\	.
.	.	1D	2.f\	1a
.	.	.	4e\	.
=106	=106	=106	=106	=106
0r	0r	0E	2c\	2g/
.	.	.	1d	1b-
.	.	.	2c\	4a/
.	.	.	.	4g/
=107	=107	=107	=107	=107
0r	0r	[0D	2d\	2f/
.	.	.	2B\	1g
.	.	.	1A	.
.	.	.	.	2f#i/
=108	=108	=108	=108	=108
0r	1GG	0D]	2r	1g
.	.	.	2G/	.
.	2GG/	.	2B\	2r
.	2GG/	.	2B\	2g/
=109	=109	=109	=109	=109
0r	2GG/	1r	2G/	2g/
.	2GG/	.	2G/	2g/
.	2GG/	1D	2B\	2g/
.	2GG/	.	2B\	2g/
=110	=110	=110	=110	=110
0r	1D	0F	1A	2f/
.	.	.	.	2g/
.	2r	.	1D	2a/
.	2D\	.	.	2a/
=111	=111	=111	=111	=111
0r	1E	0G	2r	2.g/
.	.	.	2G/	.
.	.	.	.	4f/
.	1G	.	2C/	2e/
.	.	.	2G/	2d/
=112	=112	=112	=112	=112
0r	2D\	1A	2F/	1f
.	2D\	.	2A/	.
.	1G	1B-	2G/	1g
.	.	.	2B-i\	.
=113	=113	=113	=113	=113
0r	1F	1c	1A	1a
.	1D	[1d	2r	2r
.	.	.	2F/	2a/
=114	=114	=114	=114	=114
0r	2r	1d]	2G/	2b-\
.	2D\	.	2A/	2.a/
.	2C/	1e-i	2.c\	.
.	.	.	.	4g/
.	2C/	.	.	[2g/
.	.	.	4B-i\	.
=115	=115	=115	=115	=115
0r	2D\	1d	1A	2g/]
.	2D\	.	.	2f#i/
.	2GG/	[1B-	1G	[1g
.	[2G\	.	.	.
=116	=116	=116	=116	=116
0r	2G\]	1B-]	2r	1g]
.	2B-\	.	2d\	.
.	1A	1c	2c\	2e/
.	.	.	2A/	2f/
=117	=117	=117	=117	=117
0r	2.G\	1d	1B	3%2gV
.	.	.	.	3%2g
.	4F\	.	.	.
.	1E	1c	1G	.
.	.	.	.	3%2gZ
=118	=118	=118	=118	=118
0r	1D	1d	2A/	3%2fV
.	.	.	2D/	.
.	.	.	.	3%2.b-
.	1GG	1B-	[1d	.
.	.	.	.	3a/Z
=119	=119	=119	=119	=119
0r	0D	0A	1d]	3%2fV
.	.	.	.	3%2g
.	.	.	2.d\	.
.	.	.	.	3%2f#iZ
.	.	.	4c\	.
=120	=120	=120	=120	=120
0r	[0GGl	[0Gl	2d\	[0gl
.	.	.	2e\	.
.	.	.	2B\	.
.	.	.	2c\	.
=121	=121	=121	=121	=121
0r	0GG]	0G]	0dl	0g]
!!LO:LB:i:g=z
=122||	=122||	=122||	=122||	=122||
*>C	*>C	*>C	*>C	*>C
*clefF4	*clefF4	*clefGv2	*clefGv2	*clefG2
*k[b-]	*k[b-]	*k[b-]	*k[]	*k[b-]
*M2/1	*M2/1	*M2/1	*M2/1	*M2/1
*met(C|)	*met(C|)	*met(C|)	*met(C|)	*met(C|)
!!!OMD: Et in spiritum
!!section: Et in spiritum
!	!LO:TX:Z=6:t=Canon at the unison	!	!	!
0r	1E	0r	0r	0r
.	1F	.	.	.
=123	=123	=123	=123	=123
1E	2.G\	0r	0r	0r
.	4F\	.	.	.
1F	1D	.	.	.
=124	=124	=124	=124	=124
2.G\	2GG/	0r	0r	0r
.	2G\	.	.	.
4F\	.	.	.	.
1D	2A\	.	.	.
.	[2B-\	.	.	.
=125	=125	=125	=125	=125
2GG/	4B-\]	0r	0r	0r
.	4A\	.	.	.
2G\	2G\	.	.	.
2A\	2F\	.	.	.
[2B-\	2D\	.	.	.
=126	=126	=126	=126	=126
4B-\]	1E	0r	0r	0r
4A\	.	.	.	.
2G\	.	.	.	.
2F\	1D	.	.	.
2D\	.	.	.	.
=127	=127	=127	=127	=127
1E	2r	0r	0r	0r
.	2G\	.	.	.
1D	2A\	.	.	.
.	[2B-\	.	.	.
=128	=128	=128	=128	=128
2r	4B-\]	0r	0r	0r
.	4A\	.	.	.
2G\	2G\	.	.	.
2A\	2F\	.	.	.
[2B-\	[2G\	.	.	.
=129	=129	=129	=129	=129
4B-\]	4G\]	0r	0r	0r
4A\	4A\	.	.	.
2G\	4B-\	.	.	.
.	4c\	.	.	.
2F\	2A\	.	.	.
[2G\	[2B-\	.	.	.
=130	=130	=130	=130	=130
4G\]	4B-\]	0r	0r	0r
4A\	4A\	.	.	.
4B-\	2G\	.	.	.
4c\	.	.	.	.
2A\	2F\	.	.	.
[2B-\	2D\	.	.	.
=131	=131	=131	=131	=131
4B-\]	2G\	0r	0r	0r
4A\	.	.	.	.
2G\	2B-\	.	.	.
2F\	1A	.	.	.
2D\	.	.	.	.
=132	=132	=132	=132	=132
2G\	1G	0r	0r	0r
2B-\	.	.	.	.
1A	1r	.	.	.
=133	=133	=133	=133	=133
1G	2E\	0r	0r	0r
.	2F\	.	.	.
1r	2G\	.	.	.
.	2G\	.	.	.
=134	=134	=134	=134	=134
2E\	2G\	0r	0r	0r
2F\	2A\	.	.	.
2G\	2.B-\	.	.	.
2G\	.	.	.	.
.	4A\	.	.	.
=135	=135	=135	=135	=135
2G\	2G\	0r	0r	0r
2A\	2F\	.	.	.
2.B-\	2G\	.	.	.
.	[2d\	.	.	.
4A\	.	.	.	.
=136	=136	=136	=136	=136
2G\	4d\]	0r	0r	0r
.	4c\	.	.	.
2F\	2A\	.	.	.
2G\	2G\	.	.	.
[2d\	[2B-\	.	.	.
=137	=137	=137	=137	=137
4d\]	4B-\]	0r	0r	0r
4c\	4A\	.	.	.
2A\	2F\	.	.	.
2G\	2.G\	.	.	.
[2B-\	.	.	.	.
.	4F\	.	.	.
=138	=138	=138	=138	=138
4B-\]	2D\	0r	0r	0r
4A\	.	.	.	.
2F\	2A\	.	.	.
2.G\	2B-\	.	.	.
.	2c\	.	.	.
4F\	.	.	.	.
=139	=139	=139	=139	=139
2D\	2.d\	0r	0r	0r
2A\	.	.	.	.
.	4c\	.	.	.
2B-\	2B-\	.	.	.
2c\	2A\	.	.	.
=140	=140	=140	=140	=140
2.d\	2B-\	0r	0r	0r
.	1G	.	.	.
4c\	.	.	.	.
2B-\	.	.	.	.
2A\	2F\	.	.	.
=141	=141	=141	=141	=141
2B-\	2G\	0r	0r	0r
1G	2B-\	.	.	.
.	2.A\	.	.	.
2F\	.	.	.	.
.	4G\	.	.	.
=142	=142	=142	=142	=142
2G\	4E\	0r	0r	0r
.	4D\	.	.	.
2B-\	1G	.	.	.
2.A\	.	.	.	.
.	2F\	.	.	.
4G\	.	.	.	.
=143	=143	=143	=143	=143
4E\	2G\	0r	0r	0r
4D\	.	.	.	.
1G	2B-\	.	.	.
.	1A	.	.	.
2F#i\	.	.	.	.
=144	=144	=144	=144	=144
0Gl	0Gl	0r	0r	0r
!!LO:LB:i:g=z
=145||	=145||	=145||	=145||	=145||
*>D	*>D	*>D	*>D	*>D
*clefF4	*clefF4	*clefGv2	*clefGv2	*clefG2
*k[b-]	*k[b-]	*k[b-]	*k[]	*k[b-]
*M2/1	*M2/1	*M2/1	*M2/1	*M2/1
*met(C|)	*met(C|)	*met(C|)	*met(C|)	*met(C|)
!!!OMD: Qui cum patre
!!section: Qui cum patre
0r	0r	[0G	2B\	0r
.	.	.	2c\	.
.	.	.	1d	.
=146	=146	=146	=146	=146
0r	1GG	0G]	1d	0r
.	1C	.	1e	.
=147	=147	=147	=147	=147
0r	1BB-	0B-	2d\	0r
.	.	.	2B-i\	.
.	2GG/	.	2d\	.
.	2G\	.	2G/	.
=148	=148	=148	=148	=148
0r	4A\	0A	2r	0r
.	4G\	.	.	.
.	4F#i\	.	1c	.
.	4E\	.	.	.
.	1F#i	.	.	.
.	.	.	2A/	.
=149	=149	=149	=149	=149
0r	2G\	1G	2B\	0r
.	2E\	.	2c\	.
.	2D\	1B-	[1d	.
.	[2G\	.	.	.
=150	=150	=150	=150	=150
0r	2G\]	1B-	1d]	0r
.	2B-\	.	.	.
.	1A	1c	1e	.
=151	=151	=151	=151	=151
0r	0D	0d	2r	1a
.	.	.	2d\	.
.	.	.	2.f\	1a
.	.	.	4e\	.
=152	=152	=152	=152	=152
0r	0r	1e-i	2c\	1g
.	.	.	2c\	.
.	.	1d	2d\	2f/
.	.	.	2B-i\	[2b-\
=153	=153	=153	=153	=153
0r	0r	0B-	2G/	4b-\]
.	.	.	.	4a/
.	.	.	1d	2g/
.	.	.	.	4f/
.	.	.	.	4d/
.	.	.	2B-i\	[2g/
=154	=154	=154	=154	=154
0r	0r	1c	1A	2g/]
.	.	.	.	2f#i/
.	.	1B-	[1G	[1g
=155	=155	=155	=155	=155
0r	2B-\	0d	1G]	1g]
.	2B-\	.	.	.
.	2B-\	.	1r	1r
.	2B-\	.	.	.
=156	=156	=156	=156	=156
0r	1A	1c	0r	2e/
.	.	.	.	2f/
.	[1G	1d	.	[1g
=157	=157	=157	=157	=157
0r	1G]	0G	1B	2g/]
.	.	.	.	2g/
.	1E	.	1c	2g/
.	.	.	.	2g/
=158	=158	=158	=158	=158
0r	0D	0A	1d	2f/
.	.	.	.	1g
.	.	.	1d	.
.	.	.	.	2f#i/
=159	=159	=159	=159	=159
0r	1GG	[0G	1d	[0g
.	2C/	.	1e	.
.	2C/	.	.	.
=160	=160	=160	=160	=160
0r	2BB-/	0G]	2d\	0g]
.	2C/	.	2c\	.
.	2GG/	.	1B	.
.	2GG/	.	.	.
=161	=161	=161	=161	=161
0r	2D\	1r	1A	0r
.	2D\	.	.	.
.	1C	1G	2r	.
.	.	.	2e\	.
=162	=162	=162	=162	=162
0r	2r	1F	2f\	0r
.	2FF/	.	2f\	.
.	2BB-/	1F	2f\	.
.	2BB-/	.	2f\	.
=163	=163	=163	=163	=163
0r	2BB-/	1B-	2f\	0r
.	2BB-/	.	2d\	.
.	1BB-	1B-	2.f\	.
.	.	.	4e\	.
=164	=164	=164	=164	=164
0r	1F	1A	2c\	0r
.	.	.	2.d\	.
.	1D	[1d	.	.
.	.	.	4e\	.
.	.	.	[2f\	.
=165	=165	=165	=165	=165
0r	0AA 0A	2d\]	2f\]	0r
.	.	2c#i\	4e\	.
.	.	.	4d\	.
.	.	2c#i\	1e	.
.	.	2Bni\	.	.
=166	=166	=166	=166	=166
0r	0D	1.d	1d	0r
.	.	.	2r	.
.	.	4c\	2d\	.
.	.	4B-\	.	.
=167	=167	=167	=167	=167
0r	1r	1A	1c	2e/
.	.	.	.	2f/
.	1GG	1B-	1d	1g
=168	=168	=168	=168	=168
0r	2C/	0c	2G/	1g
.	2C/	.	2G/	.
.	2C/	.	2e-\	1g
.	2C/	.	2e-i\	.
=169	=169	=169	=169	=169
0r	2D\	0A	1d	2f/
.	2D\	.	.	2.a/
.	1F	.	1c	.
.	.	.	.	4g/
.	.	.	.	2f/
=170	=170	=170	=170	=170
0r	1C	1G	2c\	1e
.	.	.	2c\	.
.	1D	1F	2A/	2f/
.	.	.	2A/	2d/
=171	=171	=171	=171	=171
0r	1AA	0E	2.c\	2e/
.	.	.	.	2f/
.	.	.	4B\	.
.	1E	.	1G	1g
=172	=172	=172	=172	=172
0r	2F\	[0D	2.d\	2a/
.	2D\	.	.	2f/
.	.	.	4c\	.
.	2GG/	.	2B\	2g/
.	2D\	.	2A/	2a/
=173	=173	=173	=173	=173
0r	2BB-/	0D]	2G/	2d/
.	2GG/	.	2B\	1g
.	1D	.	1A	.
.	.	.	.	2f#i/
=174	=174	=174	=174	=174
0r	0GG	1r	1G	[0g
.	.	1d	2r	.
.	.	.	2d\	.
=175	=175	=175	=175	=175
0r	0r	1c	1e	0g]
.	.	1B-	[1d	.
=176	=176	=176	=176	=176
0r	0r	0G	1d]	0r
.	.	.	1B	.
=177	=177	=177	=177	=177
0r	0r	0A	2r	0r
.	.	.	1c	.
.	.	.	2A/	.
=178	=178	=178	=178	=178
0r	0r	1G	2B\	0r
.	.	.	2c\	.
.	.	[1B-	[1d	.
=179	=179	=179	=179	=179
0r	0r	1B-]	1d]	0r
.	.	1c	1e	.
=180	=180	=180	=180	=180
0r	0r	0A	2.c\	0r
.	.	.	4d\	.
.	.	.	2e\	.
.	.	.	2f\	.
=181	=181	=181	=181	=181
0r	0r	0G	2e\	0r
.	.	.	1d	.
.	.	.	[2g\	.
=182	=182	=182	=182	=182
0r	0r	1B-	4g\]	0r
.	.	.	4f\	.
.	.	.	2d\	.
.	.	1A	2c\	.
.	.	.	[2f\	.
=183	=183	=183	=183	=183
0r	0r	1F	4f\]	0r
.	.	.	4e\	.
.	.	.	2.d\	.
.	.	[1G	.	.
.	.	.	4c\	.
.	.	.	[2e\	.
=184	=184	=184	=184	=184
0r	0r	2G/]	4e\]	0r
.	.	.	4d\	.
.	.	2F#i/	4c\	.
.	.	.	4B\	.
.	.	2F#i/	1A	.
.	.	2E/	.	.
=185	=185	=185	=185	=185
0r	[0GG	[0G	0G	0g
=186	=186	=186	=186	=186
0r	0GG]	0G]	0B	0g
=187	=187	=187	=187	=187
0r	0C	1r	0c	0e
.	.	1G	.	.
=188	=188	=188	=188	=188
0r	0FF	1A	[0c	0f
.	.	1F	.	.
=189	=189	=189	=189	=189
0r	1C	1G	1c]	1e
.	1D	1D	[1A	[1d
=190	=190	=190	=190	=190
0r	0AA	0E	1A]	2d/]
.	.	.	.	4c#i/
.	.	.	.	4Bni/
.	.	.	1A	1c#i
=191	=191	=191	=191	=191
0r	0r	[0D	2F/	0d
.	.	.	2B-i\	.
.	.	.	2A/	.
.	.	.	[2d\	.
=192	=192	=192	=192	=192
0r	0r	0D]	4d\]	0a
.	.	.	4c\	.
.	.	.	2.f\	.
.	.	.	4e\	.
.	.	.	[2d\	.
=193	=193	=193	=193	=193
0r	0GG	1r	4d\]	0b-
.	.	.	4c\	.
.	.	.	2.g\	.
.	.	1D	.	.
.	.	.	4f\	.
.	.	.	[2d\	.
=194	=194	=194	=194	=194
0r	0D	0F	4d\]	1a
.	.	.	4c\	.
.	.	.	2.f\	.
.	.	.	.	1a
.	.	.	4e\	.
.	.	.	4d\	.
.	.	.	4c\	.
=195	=195	=195	=195	=195
0r	0E	0G	4g\	2r
.	.	.	4f\	.
.	.	.	4e\	2g/
.	.	.	4d\	.
.	.	.	1c	2e/
.	.	.	.	2g/
=196	=196	=196	=196	=196
0r	1D	1A	1d	2f/
.	.	.	.	2a/
.	1GG	1B-	2r	2g/
.	.	.	2G/	2b-\
=197	=197	=197	=197	=197
0r	1r	1c	2A/	2a/
.	.	.	2F/	2cc\
.	1GG	[1d	2.B-i\	2b-\
.	.	.	.	[2dd\
.	.	.	4A/	.
=198	=198	=198	=198	=198
0r	1BB-	1d]	2G/	4dd\]
.	.	.	.	4cc\
.	.	.	2F/	4b-\
.	.	.	.	4a/
.	1C	1e-i	4E-i/	2g/
.	.	.	4F/	.
.	.	.	2G/	4f/
.	.	.	.	4e/
=199	=199	=199	=199	=199
0r	1D	1d	2F/	2f/
.	.	.	2D/	2.dd\
.	2GG/	[1B-	[1G	.
.	.	.	.	4cc\
.	[2G\	.	.	[2b-\
=200	=200	=200	=200	=200
0r	4G\]	1B-]	0G]	4b-\]
.	4F\	.	.	4a/
.	4E\	.	.	2.g/
.	4D\	.	.	.
.	1C	1c	.	.
.	.	.	.	4f/
.	.	.	.	4e/
.	.	.	.	4d/
=201	=201	=201	=201	=201
0r	1BB-	1d	1B-i	2f/
.	.	.	.	2g/
.	[1F	1c	1A	[1a
=202	=202	=202	=202	=202
0r	1F]	1d	1D	2a/]
.	.	.	.	2g/
.	1G	1B-	[1d	[1g
=203	=203	=203	=203	=203
0r	0D	0A	0d_	1g]
.	.	.	.	1f#i
=204	=204	=204	=204	=204
0r	[0GGl	[0Gl	1d]	[0gl
.	.	.	2.B\	.
.	.	.	4c\	.
=205	=205	=205	=205	=205
0r	0GG_	0G_	2d\	0g_
.	.	.	2e\	.
.	.	.	2B\	.
.	.	.	2c\	.
=206	=206	=206	=206	=206
0r	0GG]	0G]	0dl	0g]
==	==	==	==	==
*-	*-	*-	*-	*-
!!!RDF**kern: l=long note in original notation
!!!RDF**kern: i=editorial accidental
!!!ENC:	Jesse Rodin 2011/03/29; Victoria Chang 2011/09/02
!!!END:	2011/09/02/
!!!EED:	Jesse Rodin
!!!EEV:	2013/10/25/
!!attribution-level@Jos: 1 (secure)
!!!ONB:	Translated from MusicXML and edited on 2011/10/25/ by Craig Sapp
!!muse2ps: C^@{COM}\n@{SCT}^c85i2I150v90,90,90,90,150Q16
